Newaita-dark/apps/16/guake.svg

<?xml version="1.0" encoding="UTF-8"?>
<svg xmlns="http://www.w3.org/2000/svg" xmlns:xlink="http://www.w3.org/1999/xlink" width="16pt" height="16pt" viewBox="0 0 16 16" version="1.1">
<defs>
<linearGradient id="linear0" gradientUnits="userSpaceOnUse" x1="254" y1="233.5" x2="254" y2="254.666672" gradientTransform="matrix(0.031253,0,0,0.031253,-0.330766,6.719392)">
<stop offset="0" style="stop-color:rgb(0%,0%,0%);stop-opacity:0.27451;"/>
<stop offset="1" style="stop-color:rgb(0%,0%,0%);stop-opacity:0;"/>
</linearGradient>
<radialGradient id="radial0" gradientUnits="userSpaceOnUse" cx="450.908936" cy="189.579361" fx="450.908936" fy="189.579361" r="21.166656" gradientTransform="matrix(0.0000000870852,-0.0390662,-0.0703192,-0.0000000507693,26.726844,31.797666)">
<stop offset="0" style="stop-color:rgb(0%,0%,0%);stop-opacity:0.313725;"/>
<stop offset="0.222222" style="stop-color:rgb(0%,0%,0%);stop-opacity:0.27451;"/>
<stop offset="1" style="stop-color:rgb(0%,0%,0%);stop-opacity:0;"/>
</radialGradient>
<radialGradient id="radial1" gradientUnits="userSpaceOnUse" cx="450.908936" cy="189.579361" fx="450.908936" fy="189.579361" r="21.166656" gradientTransform="matrix(-0.0000000870852,0.0390662,0.0703192,0.0000000507693,-10.850327,-3.763739)">
<stop offset="0" style="stop-color:rgb(0%,0%,0%);stop-opacity:0.313725;"/>
<stop offset="0.222222" style="stop-color:rgb(0%,0%,0%);stop-opacity:0.27451;"/>
<stop offset="1" style="stop-color:rgb(0%,0%,0%);stop-opacity:0;"/>
</radialGradient>
<radialGradient id="radial2" gradientUnits="userSpaceOnUse" cx="450.908936" cy="189.579361" fx="450.908936" fy="189.579361" r="21.166656" gradientTransform="matrix(-0.0000000870852,-0.0390662,0.0703192,-0.0000000507693,-10.850327,31.797666)">
<stop offset="0" style="stop-color:rgb(0%,0%,0%);stop-opacity:0.313725;"/>
<stop offset="0.222222" style="stop-color:rgb(0%,0%,0%);stop-opacity:0.27451;"/>
<stop offset="1" style="stop-color:rgb(0%,0%,0%);stop-opacity:0;"/>
</radialGradient>
<radialGradient id="radial3" gradientUnits="userSpaceOnUse" cx="450.908936" cy="189.579361" fx="450.908936" fy="189.579361" r="21.166656" gradientTransform="matrix(0.0000000870852,0.0390662,-0.0703192,0.0000000507693,26.726843,-3.76374)">
<stop offset="0" style="stop-color:rgb(0%,0%,0%);stop-opacity:0.313725;"/>
<stop offset="0.222222" style="stop-color:rgb(0%,0%,0%);stop-opacity:0.27451;"/>
<stop offset="1" style="stop-color:rgb(0%,0%,0%);stop-opacity:0;"/>
</radialGradient>
<linearGradient id="linear1" gradientUnits="userSpaceOnUse" x1="306.752655" y1="-16.485477" x2="305.954529" y2="-141.414581" gradientTransform="matrix(0.0360368,0,0,0.0953132,-2.454603,15.588246)">
<stop offset="0" style="stop-color:rgb(40%,73.333333%,41.568627%);stop-opacity:1;"/>
<stop offset="1" style="stop-color:rgb(50.588235%,78.039216%,51.764706%);stop-opacity:1;"/>
</linearGradient>
</defs>
<g id="surface1">
<path style=" stroke:none;fill-rule:nonzero;fill:url(#linear0);" d="M 2.316406 14.054688 L 13.5625 14.054688 L 13.5625 14.679688 L 2.316406 14.679688 Z M 2.316406 14.054688 "/>
<path style=" stroke:none;fill-rule:nonzero;fill:url(#radial0);" d="M 13.5625 14.015625 L 14.882812 14.015625 L 14.882812 13.355469 L 13.5625 13.355469 Z M 13.5625 14.015625 "/>
<path style=" stroke:none;fill-rule:nonzero;fill:url(#radial1);" d="M 2.316406 14.015625 L 0.992188 14.015625 L 0.992188 14.679688 L 2.316406 14.679688 Z M 2.316406 14.015625 "/>
<path style=" stroke:none;fill-rule:nonzero;fill:url(#radial2);" d="M 2.316406 14.015625 L 0.992188 14.015625 L 0.992188 13.355469 L 2.316406 13.355469 Z M 2.316406 14.015625 "/>
<path style=" stroke:none;fill-rule:nonzero;fill:url(#radial3);" d="M 13.5625 14.015625 L 14.882812 14.015625 L 14.882812 14.679688 L 13.5625 14.679688 Z M 13.5625 14.015625 "/>
<path style=" stroke:none;fill-rule:nonzero;fill:url(#linear1);" d="M 1.652344 2.109375 L 14.222656 2.109375 C 14.589844 2.109375 14.882812 2.390625 14.882812 2.734375 L 14.882812 13.390625 C 14.882812 13.738281 14.589844 14.015625 14.222656 14.015625 L 1.652344 14.015625 C 1.289062 14.015625 0.992188 13.738281 0.992188 13.390625 L 0.992188 2.734375 C 0.992188 2.390625 1.289062 2.109375 1.652344 2.109375 Z M 1.652344 2.109375 "/>
<path style=" stroke:none;fill-rule:nonzero;fill:rgb(0%,0%,0%);fill-opacity:0.588235;" d="M 4.328125 6.328125 C 4.199219 6.199219 3.988281 6.199219 3.859375 6.328125 C 3.730469 6.457031 3.730469 6.667969 3.859375 6.796875 L 4.796875 7.734375 L 3.859375 8.667969 C 3.730469 8.796875 3.730469 9.007812 3.859375 9.136719 C 3.988281 9.265625 4.199219 9.265625 4.328125 9.136719 L 5.496094 7.964844 C 5.503906 7.957031 5.511719 7.949219 5.519531 7.941406 C 5.625 7.8125 5.621094 7.621094 5.496094 7.5 Z M 4.328125 6.328125 "/>
<path style=" stroke:none;fill-rule:nonzero;fill:rgb(100%,100%,100%);fill-opacity:0.392157;" d="M 1.652344 2.109375 C 1.289062 2.109375 0.992188 2.386719 0.992188 2.734375 L 0.992188 2.898438 C 0.992188 2.554688 1.289062 2.273438 1.652344 2.273438 L 14.222656 2.273438 C 14.589844 2.273438 14.882812 2.554688 14.882812 2.898438 L 14.882812 2.734375 C 14.882812 2.386719 14.589844 2.109375 14.222656 2.109375 Z M 1.652344 2.109375 "/>
<path style=" stroke:none;fill-rule:nonzero;fill:rgb(0%,0%,0%);fill-opacity:0.235294;" d="M 1.652344 14.023438 C 1.289062 14.023438 0.992188 13.742188 0.992188 13.398438 L 0.992188 13.230469 C 0.992188 13.578125 1.289062 13.855469 1.652344 13.855469 L 14.222656 13.855469 C 14.589844 13.855469 14.882812 13.578125 14.882812 13.230469 L 14.882812 13.398438 C 14.882812 13.742188 14.589844 14.023438 14.222656 14.023438 Z M 1.652344 14.023438 "/>
<path style=" stroke:none;fill-rule:nonzero;fill:rgb(12.941177%,12.941177%,12.941177%);fill-opacity:0.952941;" d="M 1.984375 2.730469 C 1.78125 2.730469 1.613281 2.898438 1.613281 3.101562 L 1.613281 12.363281 C 1.613281 12.566406 1.78125 12.734375 1.984375 12.734375 L 13.890625 12.734375 C 14.097656 12.734375 14.261719 12.566406 14.261719 12.363281 L 14.261719 3.101562 C 14.261719 2.898438 14.097656 2.730469 13.890625 2.730469 Z M 1.984375 2.808594 L 13.890625 2.808594 C 14.054688 2.808594 14.183594 2.941406 14.183594 3.101562 L 14.183594 12.363281 C 14.183594 12.527344 14.054688 12.65625 13.890625 12.65625 L 1.984375 12.65625 C 1.824219 12.65625 1.691406 12.527344 1.691406 12.363281 L 1.691406 3.101562 C 1.691406 2.941406 1.824219 2.808594 1.984375 2.808594 Z M 1.984375 2.808594 "/>
<path style=" stroke:none;fill-rule:nonzero;fill:rgb(87.058824%,87.058824%,87.058824%);fill-opacity:0.929412;" d="M 1.984375 2.816406 C 1.824219 2.816406 1.699219 2.945312 1.699219 3.101562 L 1.699219 12.363281 C 1.699219 12.523438 1.824219 12.648438 1.984375 12.648438 L 13.890625 12.648438 C 14.050781 12.648438 14.179688 12.523438 14.179688 12.363281 L 14.179688 3.101562 C 14.179688 2.945312 14.050781 2.816406 13.890625 2.816406 Z M 1.984375 2.894531 L 13.890625 2.894531 C 14.007812 2.894531 14.101562 2.984375 14.101562 3.101562 L 14.101562 12.363281 C 14.101562 12.480469 14.007812 12.570312 13.890625 12.570312 L 1.984375 12.570312 C 1.867188 12.570312 1.777344 12.480469 1.777344 12.363281 L 1.777344 3.101562 C 1.777344 2.984375 1.867188 2.894531 1.984375 2.894531 Z M 1.984375 2.894531 "/>
<path style="fill:none;stroke-width:3;stroke-linecap:round;stroke-linejoin:miter;stroke:rgb(12.941177%,12.941177%,12.941177%);stroke-opacity:1;stroke-miterlimit:4;" d="M 52.869951 -147.506445 L 455.081542 -147.506445 C 466.83042 -147.506445 476.204525 -138.507305 476.204525 -127.508355 L 476.204525 213.459084 C 476.204525 224.583022 466.83042 233.457174 455.081542 233.457174 L 52.869951 233.457174 C 41.246061 233.457174 31.746968 224.583022 31.746968 213.459084 L 31.746968 -127.508355 C 31.746968 -138.507305 41.246061 -147.506445 52.869951 -147.506445 Z M 52.869951 -147.506445 " transform="matrix(0.031253,0,0,0.031253,0,6.719392)"/>
</g>
</svg>

<svg xmlns="http://www.w3.org/2000/svg" width="16pt" height="16pt" viewBox="0 0 16 16"><defs><linearGradient id="a" gradientUnits="userSpaceOnUse" x1="254" y1="233.5" x2="254" y2="254.667" gradientTransform="matrix(.03125 0 0 .03125 -.33 6.72)"><stop offset="0" stop-opacity=".275"/><stop offset="1" stop-opacity="0"/></linearGradient><radialGradient id="b" gradientUnits="userSpaceOnUse" cx="450.909" cy="189.579" fx="450.909" fy="189.579" r="21.167" gradientTransform="matrix(0 -.03907 -.07032 0 26.727 31.798)"><stop offset="0" stop-opacity=".314"/><stop offset=".222" stop-opacity=".275"/><stop offset="1" stop-opacity="0"/></radialGradient><radialGradient id="c" gradientUnits="userSpaceOnUse" cx="450.909" cy="189.579" fx="450.909" fy="189.579" r="21.167" gradientTransform="matrix(0 .03907 .07032 0 -10.85 -3.764)"><stop offset="0" stop-opacity=".314"/><stop offset=".222" stop-opacity=".275"/><stop offset="1" stop-opacity="0"/></radialGradient><radialGradient id="d" gradientUnits="userSpaceOnUse" cx="450.909" cy="189.579" fx="450.909" fy="189.579" r="21.167" gradientTransform="matrix(0 -.03907 .07032 0 -10.85 31.798)"><stop offset="0" stop-opacity=".314"/><stop offset=".222" stop-opacity=".275"/><stop offset="1" stop-opacity="0"/></radialGradient><radialGradient id="e" gradientUnits="userSpaceOnUse" cx="450.909" cy="189.579" fx="450.909" fy="189.579" r="21.167" gradientTransform="matrix(0 .03907 -.07032 0 26.727 -3.764)"><stop offset="0" stop-opacity=".314"/><stop offset=".222" stop-opacity=".275"/><stop offset="1" stop-opacity="0"/></radialGradient><linearGradient id="f" gradientUnits="userSpaceOnUse" x1="306.753" y1="-16.485" x2="305.955" y2="-141.415" gradientTransform="matrix(.03604 0 0 .09531 -2.455 15.588)"><stop offset="0" stop-color="#66bb6a"/><stop offset="1" stop-color="#81c784"/></linearGradient></defs><path d="M2.316 14.055h11.246v.625H2.316zm0 0" fill="url(#a)"/><path d="M13.563 14.016h1.32v-.66h-1.32zm0 0" fill="url(#b)"/><path d="M2.316 14.016H.992v.664h1.324zm0 0" fill="url(#c)"/><path d="M2.316 14.016H.992v-.66h1.324zm0 0" fill="url(#d)"/><path d="M13.563 14.016h1.32v.664h-1.32zm0 0" fill="url(#e)"/><path d="M1.652 2.11h12.57c.368 0 .66.28.66.624v10.657c0 .347-.292.625-.66.625H1.653c-.363 0-.66-.278-.66-.625V2.734c0-.343.297-.625.66-.625zm0 0" fill="url(#f)"/><path d="M4.328 6.328a.332.332 0 0 0-.469 0 .332.332 0 0 0 0 .469l.938.937-.938.934a.332.332 0 0 0 0 .469c.13.129.34.129.47 0l1.167-1.172.024-.024a.326.326 0 0 0-.024-.441zm0 0" fill-opacity=".588"/><path d="M1.652 2.11c-.363 0-.66.277-.66.624v.164c0-.343.297-.625.66-.625h12.57c.368 0 .66.282.66.625v-.164c0-.347-.292-.625-.66-.625zm0 0" fill="#fff" fill-opacity=".392"/><path d="M1.652 14.023c-.363 0-.66-.28-.66-.625v-.168c0 .348.297.625.66.625h12.57c.368 0 .66-.277.66-.625v.168c0 .344-.292.625-.66.625zm0 0" fill-opacity=".235"/><path d="M1.984 2.73a.373.373 0 0 0-.37.372v9.261c0 .203.167.371.37.371h11.907a.37.37 0 0 0 .37-.37V3.101a.37.37 0 0 0-.37-.372zm0 .079h11.907c.164 0 .293.132.293.293v9.261a.29.29 0 0 1-.293.293H1.984a.293.293 0 0 1-.293-.293V3.102c0-.16.133-.293.293-.293zm0 0" fill="#212121" fill-opacity=".953"/><path d="M1.984 2.816a.284.284 0 0 0-.285.286v9.261c0 .16.125.285.285.285h11.907c.16 0 .289-.125.289-.285V3.102a.288.288 0 0 0-.29-.286zm0 .079h11.907c.117 0 .21.09.21.207v9.261a.207.207 0 0 1-.21.207H1.984a.203.203 0 0 1-.207-.207V3.102c0-.118.09-.207.207-.207zm0 0" fill="#dedede" fill-opacity=".929"/><path d="M1.652 2.11h12.57c.368 0 .66.28.66.624v10.657c0 .347-.292.625-.66.625H1.653c-.363 0-.66-.278-.66-.625V2.734c0-.343.297-.625.66-.625zm0 0" fill="none" stroke-width=".09375" stroke-linecap="round" stroke="#212121"/></svg>
